X:133
M:3/4
L:1/8
K:D
e4f2 | g4f2 | e4B2 | d4e2 | B4A2 | G4A2 | B6 | B4d2 | 
e4f2 | g4f2 | e4B2 | d4e2 | B4A2 | G4A2 | B6 | B4B2 | 

